X:1
T:6 Lieder, Op.13
T:Aus der Ferne
T:6 Lieder, Op.13
T:Josephine Lang
T:3. Aus der Ferne
T:(Author unknown)
T:Creative Commons copyright waiver (CC0 1.0 Universal)
T:Creative Commons copyright waiver (CC0 1.0 Universal)
T:Creative Commons copyright waiver (CC0 1.0 Universal)
C:Josephine Lang
Z:(Author unknown)
Z:Creative Commons copyright waiver (CC0 1.0 Universal)
L:1/8
Q:1/4=92
M:3/4
K:D
V:1 treble nm="Stimme\nVoice"
V:1
"^Andante" z6 | z6 | F4 E2 | D4 F2 | B4 A2 | F4 D z | G2 z2 z B | e4 d2 | c4 A2 | E4 z2 | %10
w: ||1. Siehst du|dort die|Wol- ken|ei- len|ja mit|ih- nen|möcht' ich|gern,|
w: ||2. Ach sie|ge- hen|wie sie|kom- men,|hö- ren|nicht mein|fle- hend|Wort,|
w: ||3. Wol- ken!|se- gelt|durch die|Lüf- te,|grüs- set|mir mein|Hei- mat-|land,|
 F2 z2 z ^G | A4 F2 | d4 d2 | c4 A2 | G4 F2 | f4 d2 | c2- c3 ^E | F4 z2 | z6 | z6 | z6 | z6 | z6 | %23
w: doch, ich|muss al-|lein hier|wei- len,|ist das|Lieb- ste|mir * so|fern!||||||
w: ha- ben|mich nicht|mit- ge-|nom- men,|ei- len|flüch- tig|wei- * ter|fort!||||||
w: o dass|ich auch|mit euch|schiff- te|an des|Him- mels|blau- * en|Rand.||||||
 z6 | z6 | z6 | G4 F2 | E4 =c2 | B4 G2 | F4 E2 | D2- D3 C | B,4 d2 | c4 B2 | (F4 D) z | E4 z F | %35
w: |||Wol- ken|||||nicht so||||
w: |||O so|||||Fer- ne||||
w: |||Ein- sam|||||Sehn- sucht||||
 G4 A2 | B4 c2 | e4 d2 | d4 _B2 | d4 z B | A4 E2 | F4 z2 | E4 A2 | c4 z B | A4 c2 | f4 e2 | d4 F2 | %47
w: |euch ge-|zo- gen,||||hier,|||||lasst mich|
w: |treu mir|blie- ben,||||Lied!|||||brin- get|
w: |ich so|ger- ne,||||Lust!|||||ach, bei|
 A4 (D2 | F4 ED | D6) | z6 | z6 | z6 | z6 | z6 | z6 | z6 | z6 :| z6 |] %59
w: ||||||||||||
w: ||||||||||||
w: ||||||||||||

